!!!COM: Luise Adolpha Le Beau
!!!CNT: Deutsch
!!!TXO: Deutsch
!!!OTL: Der Rose Bitte
!!!LYR: Gernss
!!!OPR: Drei Lieder
!!!OPS: Op. 39
!!!ONM: No. 3
!!!ENC: Ben Fuhrman
!!!YOR: Frauen komponieren: 25 Lieder fu2r Singstimme und Klavier
!!!YOR: Mainz, B. Schott's So2hne, 1992.
!!!ODT: 1884
!!NB: Only vocal melody encoded.
!!NB: First instance of melodic material only encoded.
!!created: 2/15/10 2:19PM
!!proofed and posted: 2/15/10 2:25PM
**kern	**silbe
*clef G2	*
*k[b-e-a-]	*
*M6/8	*
*MM[Bewegt]	*
=3	=3
{4g	{Trenn
8a	mich
4f#	nicht
8g	vom
=4	=4
4.cc	Bla2t-
4.ee-	-ter-
=5	=5
4.dd	-thro-
4g}	-ne,}
8r	.
=6	=6
2.r	.
=7	=7
{4ee-	{gib
8dd	mich
4cc	nicht
8b-	dem
=8	=8
4.a-	To-
4.g	-de
=9	=9
[4.f#	hin.
4f#]}	|}
8r	.
=10	=10
.4r	.
8r	.
{8e-	{Nicht
8cc	um
=11	=11
[4.b-	-sonst
4b-]	|
8b-	ward
=12	=12
4.cc	ich
4.dd	die
=13	=13
4.ee-	Kro-
4.b-	-ne
=14	=14
4.g	und
4.a-	der
=15	=15
[4.b-	Blu-
4b-]	|
8g	-men
=16	=16
4.g	Ko2-
4.f#	-ni-
=17	=17
4.g}	-gin.}
4.r	.
=18	=18
4.r	.
8r	.
{8g	{Lass
8b-	mein
=19	=19
4.an	Da-
4.an	sein
=20	=20
4.b-	sich
4.cc	vol-
=21	=21
2.dd	-len-
=22	=22
4g	-den,
8r	.
4f#	das
8g	nur
=23	=23
4.a	all-
4.g	-zu
=24	=24
4.an	schnell
4.bn	ent-
=25	=25
[4.cc	-weicht,
4cc]}	|}
8r	.
=26	=26
4.r	.
{4dd-	{lass
8cc	mich
=27	=27
4.ff	pran-
8cc}	-gen,}
8r	.
8r	.
=28	=28
{4.b-	{Du2f-
4.a-	-te
=29	=29
4.g	spen
8f}	-den.}
8r	.
8r	.
=30	=30
4.r	.
{4e-	{bis
8f	mein
=31	=31
[4.g	Haupt
4g]	|
8e-	sich
=32	=32
4.e-	wel-
4.d	-kend
=33	=33
4.c}	neigt.}
4.r	.
=34	=34
4.r	.
{4e-	{Wenn
8e-	mich
=35	=35
4.ee-	ho-
4.cc	-he
=36	=36
4.b-	Rei-
4.a-	-ze
=37	=37
4.a-	schmu2-
8g}	-cken,}
8r	.
8r	.
=38	=38
4.r	.
8r	.
{8f	{darf
8e-	die
=39	=39
[4.a-	Hand
4a-]	|
8a-	sich
=40	=40
4.aa-	fre-
4.cc-	-velnd
=41	=41
2.b-}	nah'n?}
=42	=42
2.r	.
=43	=43
{4.cc-	{So
4.gg-	mir
=44	=44
8.b-	kann
8.cc-	ich
8.dd-	dich
8.cc-	ent-
=45	=45
4.ff-	-zu2-
8cc-}	-cken.}
8r	.
8r	.
=46	=46
{4.cc-	{freu-
4.a-	-dig
=47	=47
4.g	wan-
4.b-	-deln
=48	=48
4.g	dir
4.f	vor-
=49	=49
4.e-}	-an.}
4.r	.
=50	=50
4.r	.
8r	.
{8g	{Ach,
8b-	mein
=51	=51
[4.an	Ruhm
4an]	|
8an	wird
=52	=52
4.b-	bald
4.cc	ver-
=53	=53
4.dd	-hal-
8g}	-len,}
8r	.
8r	.
=54	=54
4.r	.
{4f#	{end-
8g	-lich
=55	=55
4.a	lo2st
4.g	der
=56	=56
4.an	Zau-
4.bn	-ber
=57	=57
[4.cc	sich,
4cc]}	|}
8r	.
=58	=58
4.r	.
{4dd-	{mei-
8cc	-ne
=59	=59
4.ff	Bla2t-
4.cc	-ter
=60	=60
4.b-	wel-
4a-	ken,
8r	.
=61	=61
4.g	fal-
8f}	-len,}
8r	.
8r	.
=62	=62
4.r	.
{4e-	{und
8f	ver-
=63	=63
4.g	-ge-
4.e-	-bens
=64	=64
4.g	suchst
4.cc	du
=65	=65
[4.bn	mich,
4bn]}	|}
8r	.
=66	=66
4.r	.
{4bn	{und
8bn	ver-
=67	=67
2.cc	-ge-
=68	=68
2.g	-bens
=69	=69
[2.e-	suchst
=70	=70
4.e-]	|
4.d	du
=71	=71
2.c}	mich!}
==	==
*-	*-
